X: 26625
T: Mickey Duggan
R: polka
M: 2/4
K: Dmajor
|:FA dA|BA dA|FA de|f/e/d e2|
FA dA|BA de|f/e/d BA|1 Bc d2:|2 Bc d>e||
|:fa ab|af ed/e/|fd BA|Be ed/e/|
fa ab|af ed/e/|f/e/d BA|1 Bc d>e:|2 Bc d2||

